X:284
T: WER GOTT DAS HERZE GIEBET
N: B0762
O: Europa, Mitteleuropa, Deutschland
R: Moral - Lied, religioes
M: 4/4
L: 1/8
K: G
D2 | G3AB2A2 | G4D2
EF | G2B2A2d2 | B4z2
D2 | G3AB2A2 | G4E2
FG | AdAGF2E2 | D4z2
D2 | A3Bc2A2 | d4B2
e2 | d2G2c2B2 | A4z2
D2 | E2F2G2A2 | B3cd2
e2 | d2GAB2A2 | G4z2

@@@ Tune index: 2502
